X: 4640
T: Box Man, The
R: jig
M: 6/8
K: Dmajor
AG|:FGA f2 e|dFB AFD|A,DF Ad=c|~B3 G2F|
EAc e2f|eAc efg|baa age|gff ~f2a|
DFA f2 e|dFB AFD|A,DF Ad=c|B3 G2F|
EAc eAc|eAc eba|gec Afe|1 d3 dAG:|2 ~d3 dfg||
a2b a2b|afd a2b|afd afa|gee Bcd|
e2f ecA|~g2g Bcd|e2f ecA|GFE Dfg|
a2b a2b|afd a2b|afd afa|gee Bcd|
e2f ecA|~g2g Bcd|gba gec|dAF D||

